X: 23494
T: Lexie MacAskill
R: reel
M: 4/4
K: Eminor
e2e2 deed|eedB GABd|e2e2 deed|egfd eeBd|
e2e2 deed|eedB GABd|e z e2deed|egfd e z ef||
g2fg e2dB|AAAB GABd|g2fg e2dB|egfd e z ef|
g2fg e2dB|A<AdB GABd|g2fg e2dB|egfd e z ed||
e2e2 e2dB|AAAB GABd|e2e2e2dB|egfd e z Bd|
e2e2e2dB|AAAB GABd|e2e2e2dB|egfd e z eg||
aeea eedB|AAAB GABd|aeea eedB|egfd e z g2|
aeea eedB|A2dB GABd|aeea eedB|egfd e2e2||

